X: 720
T: Ey Nihâl-i Emelimde Sararan...
C: Udî Arşak Çömlekçiyan
O: Turkey
F: http://compmusic.upf.edu/node/140
N: nihavent--sarki--agiraksak--ey_nihal-i--udi_arsak_comlekciyan
N: makam= nihavent
N: form= sarki
N: usul= agiraksak = 9/4
M: 9/4
L: 1/16
K: C _B _e  
Q: 1/4=66
%%MIDI tuningsystem comma53
z8 z2G4G2 d8 e3d c2d2 e2g2  | f2e2 d2c2 B2c4e2 d2c2 B2A2 B2AB c2BA AGG^F  | 
w:  Ey  ni hâl_ i   |  *  *  *  *  *  e me lim *  *  *  de   | 
G8-G2g2 ^f2e2 d3^c B4 c4 d4 e4  | \
w:  *  sa *  ra ran  *  *  pem  | 
d2e4d2 ^f2g4fe def4ed d6de dcBc  | 
w:  be  *  *  *  *  *  *  *  *  *  çi *  çek   SAZ  | 
d3b agfe d2d4b2 a3g ^f4 g4 a4 b4  | \
w:  *  *  *  *  *  *  *  Reng_ ü  bû  *  *  ver  | 
c'2ba g^fed c2c4e2 d2c2 B2A2 B2AB c2BA AG^FG  | 
w:  *  *  *  *  *  *  *  *  mek  i çin  *  *  *  ben   | 
A8 z2G4e2 d2c2 B2A2 A3G ^F3E D4  | \
w:  *  sa na  ver *  *  *  miş  | 
c2d4cB f2e2 d2c2 B3A AGG^F G6c2 B2c2  | 
w:  tim  *  *  *  *  *  *  *  *  *  *  *  e *  mek   SAZ  | 
d3b agfe d2d4b2 a3g ^f4 g4 a4 b4  | \
w:  *  *  *  *  *  *  *  Reng_ ü  bû  *  *  ver  | 
c'2ba g^fed c2c4e2 d2c2 B2A2 B2AB c2BA AG^FG  | 
w:  *  *  *  *  *  *  *  *  mek  i çin  *  *  *  ben   | 
A8 z2G4e2 d2c2 B2A2 A3G ^F3E D4  | \
w:  *  sa na  ver *  *  *  miş  | 
c2d4cB f2e2 d2c2 B3A AGG^F G6g2 f2a2  | 
w:  tim  *  *  *  *  *  *  *  *  *  *  *  e *  mek   SAZ  | 
gfed cd_1/4ef g4 f2g2 g8 g3f e2g2 f2ga  | \
w:  *  *  *  *  *  *  *  *  *  A cı rım  kok  | 
g2f4_1/4e4a2 g2a2 f3e d2e2 f3a g3f e3g  | 
w:  *  *  *  la *  ma dan  *  *  *  ben   | 
f3_1/4e e2ed d4 c2d2 d8 e2de f2ed c4  | \
w:  *  *  *  *  *  *  se ni  sol dur  | 
(3b2a2g2 (3a2b2c'2 (3b2a2g2 f2g2 f3_1/4e feed d6d_e dcBc  | 
w:  du  *  *  *  *  *  *  *  *  *  *  *  *  *  *  fe *  lek   SAZ  | 
d3b agfe d2d4b2 a3g ^f4 g4 a4 b4  | \
w:  *  *  *  *  *  *  *  Reng_ ü  bû  *  *  ver  | 
c'2ba g^fed c2c4e2 d2c2 B2A2 B2AB c2BA AG^FG  | 
w:  *  *  *  *  *  *  *  *  mek  i çin  *  *  *  ben   | 
A8 z2G4e2 d2c2 B2A2 A3G ^F3E D4  | \
w:  *  sa na  ver *  *  *  miş  | 
c2d4cB f2e2 d2c2 B3A AGG^F G6c2 B2c2  | 
w:  tim  *  *  *  *  *  *  *  *  *  *  *  e *  mek   SAZ  | 
d3b agfe d2d4b2 a3g ^f4 g4 a4 b4  | \
w:  *  *  *  *  *  *  *  Reng_ ü  bû  *  *  ver  | 
c'2ba g^fed c2c4e2 d2c2 B2A2 B2AB c2BA AG^FG  | 
w:  *  *  *  *  *  *  *  *  mek  i çin  *  *  *  ben   | 
A8 z2G4e2 d2c2 B2A2 A3G ^F3E D4  | \
w:  *  sa na  ver *  *  *  miş  | 
c2d4cB f2e2 d2c2 B3A AGG^F G6|
w:  tim  *  *  *  *  *  *  *  *  *  *  *  e *  mek    | 


